X:150
T:Reel du temple
C:Rosaire Laplante
S:Gaston Nolet
Z:robin.beech@mcgill.ca
M:2/4
L:1/16
K:D
fg |: a3a aba2 | fff2- fdef | g2fg gage | B4- B2cB | A3A cAce | 
aaa2- afdf |1 aafa gfeg | fdcd BdAd :|2 aac'b agec | ddfa d'BAG |:
FFdF FeFF | ddcd edcA | GGdG GeGG | ddcd edcB | AAeA AfAA | 
gAfA Aece | dcdf edce |1 dfec dBAG :| dfec d2 |]

